X:299
T:Bonny Breast Knot
R:
M:4/4
K:G
dc | B2 G2 G2 AB | cBAG A2 D2 | G2 B2 G2 B2 | G2 B2 d3 c |
B2 G2 G2 AB | cBAG A2 D2 | G2 B2 A2 dc | B2 G2 G2 :||
Bc | d4 d3 e | dcBA G2 B2 | AGAB cBcd | e2 A2 A2 Bc |
d2 d2 d3 e | dcBA G2 B2 | A2 c2 D2 EF | G2 B2 G2 :||
